sites/default/files/images/our platform/headings/mobile/Step-3-mobile-heading.svg

<svg width="307" height="139" viewBox="0 0 307 139" fill="none" xmlns="http://www.w3.org/2000/svg">
<path d="M52.6855 64.6055C52.6855 74.4362 50.651 81.9557 46.582 87.1641C42.513 92.3724 36.556 94.9766 28.7109 94.9766C20.9635 94.9766 15.0391 92.4212 10.9375 87.3105C6.83594 82.1999 4.73633 74.8757 4.63867 65.3379V52.252C4.63867 42.3236 6.68945 34.7878 10.791 29.6445C14.9251 24.5013 20.8659 21.9297 28.6133 21.9297C36.3607 21.9297 42.2852 24.485 46.3867 29.5957C50.4883 34.6738 52.5879 41.9818 52.6855 51.5195V64.6055ZM38.5742 50.25C38.5742 44.3581 37.7604 40.0775 36.1328 37.4082C34.5378 34.7064 32.0312 33.3555 28.6133 33.3555C25.293 33.3555 22.8353 34.6413 21.2402 37.2129C19.6777 39.752 18.8477 43.7396 18.75 49.1758V66.4609C18.75 72.2552 19.5312 76.5684 21.0938 79.4004C22.6888 82.1999 25.2279 83.5996 28.7109 83.5996C32.1615 83.5996 34.6517 82.2487 36.1816 79.5469C37.7116 76.8451 38.5091 72.7109 38.5742 67.1445V50.25ZM76.6113 52.2031H84.1309C87.7116 52.2031 90.3646 51.3079 92.0898 49.5176C93.8151 47.7272 94.6777 45.3509 94.6777 42.3887C94.6777 39.5241 93.8151 37.2943 92.0898 35.6992C90.3971 34.1042 88.0534 33.3066 85.0586 33.3066C82.3568 33.3066 80.0944 34.0553 78.2715 35.5527C76.4486 37.0176 75.5371 38.9382 75.5371 41.3145H61.4258C61.4258 37.6035 62.4186 34.2832 64.4043 31.3535C66.4225 28.3913 69.222 26.0801 72.8027 24.4199C76.416 22.7598 80.3874 21.9297 84.7168 21.9297C92.2363 21.9297 98.1283 23.7363 102.393 27.3496C106.657 30.9303 108.789 35.8783 108.789 42.1934C108.789 45.4486 107.796 48.4434 105.811 51.1777C103.825 53.9121 101.221 56.0117 97.998 57.4766C102.002 58.9089 104.98 61.0573 106.934 63.9219C108.919 66.7865 109.912 70.1719 109.912 74.0781C109.912 80.3932 107.601 85.4551 102.979 89.2637C98.3887 93.0723 92.3014 94.9766 84.7168 94.9766C77.6204 94.9766 71.8099 93.1048 67.2852 89.3613C62.793 85.6178 60.5469 80.6699 60.5469 74.5176H74.6582C74.6582 77.1868 75.651 79.3678 77.6367 81.0605C79.6549 82.7533 82.1289 83.5996 85.0586 83.5996C88.4115 83.5996 91.0319 82.7207 92.9199 80.9629C94.8405 79.1725 95.8008 76.8125 95.8008 73.8828C95.8008 66.7865 91.8945 63.2383 84.082 63.2383H76.6113V52.2031Z" fill="#2B2B2B"/>
<rect x="150" y="88" width="108" height="6" rx="3" fill="white"/>
<g filter="url(#filter0_d)">
<path d="M58.4023 67.1133C58.5846 68.4284 58.9427 69.4115 59.4766 70.0625C60.4531 71.2474 62.1263 71.8398 64.4961 71.8398C65.9154 71.8398 67.0677 71.6836 67.9531 71.3711C69.6328 70.7721 70.4727 69.6589 70.4727 68.0312C70.4727 67.0807 70.056 66.3451 69.2227 65.8242C68.3893 65.3164 67.0807 64.8672 65.2969 64.4766L62.25 63.793C59.2552 63.1159 57.1849 62.3802 56.0391 61.5859C54.099 60.2578 53.1289 58.181 53.1289 55.3555C53.1289 52.7773 54.0664 50.6354 55.9414 48.9297C57.8164 47.224 60.5703 46.3711 64.2031 46.3711C67.237 46.3711 69.8216 47.1784 71.957 48.793C74.1055 50.3945 75.2318 52.7253 75.3359 55.7852H69.5547C69.4505 54.0534 68.6953 52.8229 67.2891 52.0938C66.3516 51.612 65.1862 51.3711 63.793 51.3711C62.2435 51.3711 61.0065 51.6836 60.082 52.3086C59.1576 52.9336 58.6953 53.806 58.6953 54.9258C58.6953 55.9544 59.151 56.7227 60.0625 57.2305C60.6484 57.569 61.8984 57.9661 63.8125 58.4219L68.7734 59.6133C70.9479 60.1341 72.5885 60.8307 73.6953 61.7031C75.4141 63.0573 76.2734 65.0169 76.2734 67.582C76.2734 70.2122 75.2643 72.3997 73.2461 74.1445C71.2409 75.8763 68.4023 76.7422 64.7305 76.7422C60.9805 76.7422 58.0312 75.8893 55.8828 74.1836C53.7344 72.4648 52.6602 70.1081 52.6602 67.1133H58.4023ZM78.0898 58.8711V54.9062H81.0586V48.9688H86.5664V54.9062H90.0234V58.8711H86.5664V70.1211C86.5664 70.9935 86.6771 71.5404 86.8984 71.7617C87.1198 71.9701 87.7969 72.0742 88.9297 72.0742C89.099 72.0742 89.2747 72.0742 89.457 72.0742C89.6523 72.0612 89.8411 72.0482 90.0234 72.0352V76.1953L87.3867 76.293C84.7565 76.3841 82.9596 75.9284 81.9961 74.9258C81.3711 74.2878 81.0586 73.3047 81.0586 71.9766V58.8711H78.0898ZM101.996 58.7344C100.707 58.7344 99.7044 59.138 98.9883 59.9453C98.2852 60.7526 97.8424 61.8464 97.6602 63.2266H106.312C106.221 61.7552 105.772 60.6419 104.965 59.8867C104.171 59.1185 103.181 58.7344 101.996 58.7344ZM101.996 54.1445C103.767 54.1445 105.362 54.4766 106.781 55.1406C108.201 55.8047 109.372 56.8529 110.297 58.2852C111.13 59.5482 111.671 61.013 111.918 62.6797C112.061 63.6562 112.12 65.0625 112.094 66.8984H97.5234C97.6016 69.0339 98.2721 70.5312 99.5352 71.3906C100.303 71.9245 101.228 72.1914 102.309 72.1914C103.454 72.1914 104.385 71.8659 105.102 71.2148C105.492 70.8633 105.837 70.375 106.137 69.75H111.82C111.677 71.013 111.02 72.2956 109.848 73.5977C108.025 75.668 105.473 76.7031 102.191 76.7031C99.4831 76.7031 97.0938 75.8307 95.0234 74.0859C92.9531 72.3411 91.918 69.5026 91.918 65.5703C91.918 61.8854 92.849 59.0599 94.7109 57.0938C96.5859 55.1276 99.0143 54.1445 101.996 54.1445ZM130.531 65.3555C130.531 63.7148 130.154 62.263 129.398 61C128.656 59.737 127.445 59.1055 125.766 59.1055C123.747 59.1055 122.361 60.0625 121.605 61.9766C121.215 62.9922 121.02 64.2812 121.02 65.8438C121.02 68.3177 121.677 70.056 122.992 71.0586C123.773 71.6445 124.698 71.9375 125.766 71.9375C127.315 71.9375 128.493 71.3385 129.301 70.1406C130.121 68.9427 130.531 67.3477 130.531 65.3555ZM127.367 54.2422C129.854 54.2422 131.957 55.1602 133.676 56.9961C135.408 58.832 136.273 61.5273 136.273 65.082C136.273 68.832 135.427 71.6901 133.734 73.6562C132.055 75.6224 129.887 76.6055 127.23 76.6055C125.538 76.6055 124.132 76.1823 123.012 75.3359C122.4 74.8672 121.801 74.1836 121.215 73.2852V84.3789H115.707V54.7109H121.039V57.8555C121.638 56.931 122.276 56.2018 122.953 55.668C124.19 54.7174 125.661 54.2422 127.367 54.2422ZM172.816 47.2109V52.3086H164.203V76H158.148V52.3086H149.496V47.2109H172.816ZM187.641 54.1641C188.956 54.1641 190.147 54.3919 191.215 54.8477C192.296 55.3034 193.181 56 193.871 56.9375C194.457 57.7318 194.815 58.5521 194.945 59.3984C195.076 60.2318 195.141 61.599 195.141 63.5V76H189.457V63.0508C189.457 61.9049 189.262 60.9805 188.871 60.2773C188.363 59.2878 187.4 58.793 185.98 58.793C184.509 58.793 183.389 59.2878 182.621 60.2773C181.866 61.2539 181.488 62.6536 181.488 64.4766V76H175.941V47.3086H181.488V57.4844C182.296 56.2474 183.227 55.388 184.281 54.9062C185.349 54.4115 186.469 54.1641 187.641 54.1641ZM211.918 54.2031C212.022 54.2031 212.107 54.2096 212.172 54.2227C212.25 54.2227 212.413 54.2292 212.66 54.2422V59.9453C212.309 59.9062 211.996 59.8802 211.723 59.8672C211.449 59.8542 211.228 59.8477 211.059 59.8477C208.819 59.8477 207.315 60.5768 206.547 62.0352C206.117 62.8555 205.902 64.1185 205.902 65.8242V76H200.297V54.7109H205.609V58.4219C206.469 57.0026 207.217 56.0326 207.855 55.5117C208.897 54.6393 210.251 54.2031 211.918 54.2031ZM224.34 58.7344C223.051 58.7344 222.048 59.138 221.332 59.9453C220.629 60.7526 220.186 61.8464 220.004 63.2266H228.656C228.565 61.7552 228.116 60.6419 227.309 59.8867C226.514 59.1185 225.525 58.7344 224.34 58.7344ZM224.34 54.1445C226.111 54.1445 227.706 54.4766 229.125 55.1406C230.544 55.8047 231.716 56.8529 232.641 58.2852C233.474 59.5482 234.014 61.013 234.262 62.6797C234.405 63.6562 234.464 65.0625 234.438 66.8984H219.867C219.945 69.0339 220.616 70.5312 221.879 71.3906C222.647 71.9245 223.572 72.1914 224.652 72.1914C225.798 72.1914 226.729 71.8659 227.445 71.2148C227.836 70.8633 228.181 70.375 228.48 69.75H234.164C234.021 71.013 233.363 72.2956 232.191 73.5977C230.368 75.668 227.816 76.7031 224.535 76.7031C221.827 76.7031 219.438 75.8307 217.367 74.0859C215.297 72.3411 214.262 69.5026 214.262 65.5703C214.262 61.8854 215.193 59.0599 217.055 57.0938C218.93 55.1276 221.358 54.1445 224.34 54.1445ZM246.605 58.7344C245.316 58.7344 244.314 59.138 243.598 59.9453C242.895 60.7526 242.452 61.8464 242.27 63.2266H250.922C250.831 61.7552 250.382 60.6419 249.574 59.8867C248.78 59.1185 247.79 58.7344 246.605 58.7344ZM246.605 54.1445C248.376 54.1445 249.971 54.4766 251.391 55.1406C252.81 55.8047 253.982 56.8529 254.906 58.2852C255.74 59.5482 256.28 61.013 256.527 62.6797C256.671 63.6562 256.729 65.0625 256.703 66.8984H242.133C242.211 69.0339 242.882 70.5312 244.145 71.3906C244.913 71.9245 245.837 72.1914 246.918 72.1914C248.064 72.1914 248.995 71.8659 249.711 71.2148C250.102 70.8633 250.447 70.375 250.746 69.75H256.43C256.286 71.013 255.629 72.2956 254.457 73.5977C252.634 75.668 250.082 76.7031 246.801 76.7031C244.092 76.7031 241.703 75.8307 239.633 74.0859C237.562 72.3411 236.527 69.5026 236.527 65.5703C236.527 61.8854 237.458 59.0599 239.32 57.0938C241.195 55.1276 243.624 54.1445 246.605 54.1445Z" fill="#59C9FF"/>
</g>
<defs>
<filter id="filter0_d" x="2.66016" y="0.371094" width="304.049" height="138.008" filterUnits="userSpaceOnUse" color-interpolation-filters="sRGB">
<feFlood flood-opacity="0" result="BackgroundImageFix"/>
<feColorMatrix in="SourceAlpha" type="matrix" values="0 0 0 0 0 0 0 0 0 0 0 0 0 0 0 0 0 0 127 0"/>
<feOffset dy="4"/>
<feGaussianBlur stdDeviation="25"/>
<feColorMatrix type="matrix" values="0 0 0 0 1 0 0 0 0 1 0 0 0 0 1 0 0 0 0.25 0"/>
<feBlend mode="normal" in2="BackgroundImageFix" result="effect1_dropShadow"/>
<feBlend mode="normal" in="SourceGraphic" in2="effect1_dropShadow" result="shape"/>
</filter>
</defs>
</svg>

<svg xmlns="http://www.w3.org/2000/svg" width="307" height="139" fill="none"><path fill="#2B2B2B" d="M52.7 64.6c0 9.84-2.05 17.36-6.12 22.56-4.07 5.2-10.02 7.82-17.87 7.82-7.74 0-13.66-2.56-17.76-7.67-4.1-5.1-6.2-12.42-6.3-21.96v-13.1c0-9.92 2.05-17.45 6.15-22.6 4.13-5.14 10.07-7.7 17.8-7.7 7.76 0 13.7 2.54 17.8 7.66 4.1 5.07 6.2 12.38 6.3 21.92v13.1zM38.56 50.26c0-5.9-.8-10.17-2.44-12.84-1.6-2.7-4.1-4.04-7.52-4.04-3.3 0-5.76 1.28-7.36 3.85-1.56 2.55-2.4 6.54-2.5 11.98v17.28c0 5.8.8 10.1 2.35 12.94 1.6 2.8 4.13 4.2 7.6 4.2 3.46 0 5.95-1.35 7.48-4.05 1.53-2.7 2.33-6.84 2.4-12.4v-16.9zM76.6 52.2h7.53c3.58 0 6.23-.9 7.96-2.68 1.72-1.8 2.58-4.17 2.58-7.13 0-2.88-.86-5.1-2.6-6.7-1.68-1.6-4.03-2.4-7.02-2.4-2.7 0-4.97.76-6.8 2.25-1.8 1.47-2.72 3.4-2.72 5.76h-14.1c0-3.7.98-7.02 2.96-9.95 2.02-2.96 4.82-5.27 8.4-6.93 3.62-1.66 7.6-2.5 11.92-2.5 7.52 0 13.4 1.82 17.67 5.43 4.26 3.58 6.4 8.53 6.4 14.84 0 3.25-1 6.24-3 8.98-1.97 2.73-4.58 4.83-7.8 6.3 4 1.43 6.98 3.58 8.93 6.44 2 2.87 2.98 6.25 2.98 10.16 0 6.3-2.3 11.38-6.92 15.18-4.6 3.8-10.68 5.72-18.26 5.72-7.1 0-12.9-1.88-17.43-5.62-4.5-3.74-6.75-8.7-6.75-14.84h14.1c0 2.67 1 4.85 3 6.54 2 1.7 4.48 2.54 7.4 2.54 3.36 0 5.98-.88 7.87-2.64 1.92-1.8 2.88-4.15 2.88-7.08 0-7.1-3.9-10.64-11.72-10.64H76.6V52.2z"/><rect width="108" height="6" x="150" y="88" fill="#fff" rx="3"/><path fill="#59C9FF" d="M58.4 67.1c.18 1.33.54 2.3 1.08 2.96.97 1.2 2.65 1.78 5.02 1.78 1.42 0 2.57-.16 3.45-.47 1.68-.6 2.52-1.7 2.52-3.34 0-.95-.4-1.68-1.25-2.2-.83-.5-2.14-.96-3.92-1.35l-3.05-.7c-3-.66-5.07-1.4-6.2-2.2-1.95-1.32-2.92-3.4-2.92-6.22 0-2.58.94-4.72 2.8-6.43 1.9-1.7 4.64-2.56 8.27-2.56 3.04 0 5.62.8 7.76 2.42 2.15 1.6 3.27 3.93 3.38 7h-5.8c-.1-1.75-.84-2.98-2.25-3.7-.95-.5-2.1-.73-3.5-.73-1.56 0-2.8.3-3.72.94-.92.63-1.38 1.5-1.38 2.63 0 1.02.45 1.8 1.36 2.3.6.34 1.84.74 3.75 1.2l4.97 1.18c2.18.53 3.82 1.23 4.93 2.1 1.7 1.36 2.57 3.32 2.57 5.88 0 2.63-1 4.82-3.02 6.56-2 1.74-4.85 2.6-8.52 2.6-3.75 0-6.7-.85-8.85-2.56-2.15-1.72-3.22-4.07-3.22-7.07h5.74zm19.7-8.23V54.9h2.96v-5.93h5.5v5.94h3.46v3.97h-3.45v11.25c0 .87.1 1.42.33 1.64.22.2.9.3 2.03.3.17 0 .34 0 .53 0 .2 0 .38 0 .56-.02v4.16l-2.63.1c-2.64.08-4.44-.37-5.4-1.37-.63-.64-.94-1.63-.94-2.95v-13.1H78.1zm23.9-.14c-1.3 0-2.3.4-3 1.22-.7.8-1.16 1.9-1.34 3.28h8.65c-.08-1.47-.53-2.6-1.33-3.34-.8-.78-1.8-1.17-2.97-1.17zm0-4.6c1.77 0 3.36.35 4.78 1 1.42.67 2.6 1.72 3.52 3.16.83 1.25 1.37 2.7 1.62 4.38.14.98.2 2.38.17 4.22H97.5c.08 2.13.75 3.63 2.02 4.5.76.52 1.7.8 2.77.8 1.15 0 2.1-.33 2.8-1 .4-.34.74-.83 1.04-1.45h5.68c-.14 1.26-.8 2.55-1.97 3.85-1.82 2.07-4.38 3.1-7.66 3.1-2.72 0-5.1-.87-7.18-2.6-2.07-1.76-3.1-4.6-3.1-8.53 0-3.68.93-6.5 2.8-8.48 1.87-1.97 4.3-2.96 7.28-2.96zm28.53 11.23c0-1.65-.38-3.1-1.13-4.36-.74-1.26-1.96-1.9-3.63-1.9-2.02 0-3.4.96-4.16 2.88-.38 1-.58 2.3-.58 3.86 0 2.48.66 4.22 1.97 5.22.77.58 1.7.88 2.77.88 1.55 0 2.72-.6 3.53-1.8.82-1.2 1.23-2.8 1.23-4.78zm-3.16-11.12c2.48 0 4.6.92 6.3 2.76 1.74 1.83 2.6 4.53 2.6 8.08 0 3.75-.84 6.6-2.54 8.58-1.67 1.96-3.84 2.95-6.5 2.95-1.7 0-3.1-.42-4.22-1.26-.6-.47-1.2-1.16-1.78-2.05v11.08h-5.5V54.7h5.32v3.16c.6-.93 1.24-1.66 1.9-2.2 1.25-.94 2.72-1.42 4.43-1.42zm45.45-7.03v5.1h-8.62V76h-6.05V52.3h-8.65v-5.1h23.32zm14.82 6.96c1.32 0 2.5.23 3.58.7 1.08.44 1.96 1.14 2.65 2.08.6.8.94 1.6 1.07 2.46.14.83.2 2.2.2 4.1V76h-5.68V63.05c0-1.15-.2-2.07-.6-2.77-.5-1-1.46-1.5-2.88-1.5-1.47 0-2.6.5-3.36 1.5-.75.97-1.13 2.37-1.13 4.2V76h-5.56V47.3h5.55V57.5c.8-1.23 1.73-2.1 2.78-2.57 1.07-.5 2.2-.74 3.36-.74zm24.28.04c.1 0 .2 0 .25.02.08 0 .24 0 .5.02v5.7c-.36-.03-.67-.06-.95-.07-.27-.02-.5-.02-.66-.02-2.24 0-3.75.73-4.5 2.2-.44.8-.66 2.07-.66 3.77V76h-5.6V54.7h5.3v3.72c.87-1.42 1.62-2.4 2.25-2.9 1.05-.88 2.4-1.32 4.07-1.32zm12.42 4.53c-1.3 0-2.3.4-3 1.22-.7.8-1.15 1.9-1.34 3.28h8.66c-.1-1.47-.54-2.6-1.35-3.34-.8-.78-1.78-1.17-2.96-1.17zm0-4.6c1.77 0 3.37.35 4.78 1 1.42.67 2.6 1.72 3.52 3.16.83 1.25 1.37 2.7 1.62 4.38.15.98.2 2.38.18 4.22h-14.57c.07 2.13.75 3.63 2 4.5.78.52 1.7.8 2.78.8 1.15 0 2.08-.33 2.8-1 .4-.34.73-.83 1.03-1.45h5.68c-.14 1.26-.8 2.55-1.97 3.85-1.83 2.07-4.38 3.1-7.66 3.1-2.7 0-5.1-.87-7.17-2.6-2.07-1.76-3.1-4.6-3.1-8.53 0-3.68.92-6.5 2.78-8.48 1.88-1.97 4.3-2.96 7.3-2.96zm22.26 4.6c-1.28 0-2.3.4-3 1.22-.7.8-1.15 1.9-1.33 3.28h8.65c-.1-1.47-.54-2.6-1.35-3.34-.8-.78-1.78-1.17-2.97-1.17zm0-4.6c1.78 0 3.37.35 4.8 1 1.4.67 2.58 1.72 3.5 3.16.84 1.25 1.38 2.7 1.63 4.38.14.98.2 2.38.17 4.22h-14.57c.08 2.13.75 3.63 2.02 4.5.76.52 1.7.8 2.77.8 1.14 0 2.08-.33 2.8-1 .38-.34.73-.83 1.03-1.45h5.68c-.14 1.26-.8 2.55-1.97 3.85-1.83 2.07-4.38 3.1-7.66 3.1-2.7 0-5.1-.87-7.17-2.6-2.07-1.76-3.1-4.6-3.1-8.53 0-3.68.93-6.5 2.8-8.48 1.86-1.97 4.3-2.96 7.27-2.96z" filter="url(#a)"/><defs><filter id="a" width="304.049" height="138.008" x="2.66" y=".371" filterUnits="userSpaceOnUse" color-interpolation-filters="sRGB"><feFlood flood-opacity="0" result="BackgroundImageFix"/><feColorMatrix in="SourceAlpha" values="0 0 0 0 0 0 0 0 0 0 0 0 0 0 0 0 0 0 127 0"/><feOffset dy="4"/><feGaussianBlur stdDeviation="25"/><feColorMatrix values="0 0 0 0 1 0 0 0 0 1 0 0 0 0 1 0 0 0 0.25 0"/><feBlend in2="BackgroundImageFix" result="effect1_dropShadow"/><feBlend in="SourceGraphic" in2="effect1_dropShadow" result="shape"/></filter></defs></svg>
